X:14
T:GB/7d/14 The Servant Man 
%%VWML:GB-7d-14-0
F:http://www.vwml.org/record/GB/7d/14
P:G.S.K. B(utterworth)
C:Transcribed by Simon Furey and Lewis Jones
L:1/4
M:4/4
I:linebreak $
K:G
G | B c d G | A2 B3/2 A/ | G3 G | B c d G | B2 d2 | A3 B/A/ |$ G F G A | g2 f e | e d2 e | d3/2 c/ B G | c3/2 A/ B A | G3 |]

